assets/images/missed.svg

<svg width="40" height="40" viewBox="0 0 40 40" fill="none" xmlns="http://www.w3.org/2000/svg">
<g clip-path="url(#clip0_1283_11441)">
<path d="M23.3495 35.3376C22.9903 35.3264 22.7183 35.5808 22.6639 35.98C22.6567 36.032 22.6559 36.0856 22.6527 36.1392C22.5487 37.5928 21.4623 38.652 20.0023 38.6552C14.6695 38.6664 9.33751 38.6664 4.00471 38.6456C3.58231 38.644 3.12071 38.5264 2.74471 38.3312C1.78551 37.8336 1.33911 36.9904 1.33911 35.9096C1.33991 25.296 1.33992 14.6832 1.33992 4.0704C1.33992 3.9768 1.34151 3.8832 1.34871 3.7904C1.45031 2.4264 2.58631 1.3592 3.94471 1.3368C4.17431 1.3336 4.30311 1.4008 4.40631 1.6168C4.79751 2.4344 5.22231 3.2352 5.61271 4.0536C6.01591 4.9 6.66711 5.328 7.60551 5.3272C10.5383 5.3256 13.4711 5.3264 16.4039 5.3264C17.3055 5.3264 17.9551 4.9272 18.3543 4.1136C18.7591 3.288 19.1847 2.4728 19.5791 1.6424C19.6967 1.3928 19.8479 1.3272 20.1063 1.3384C21.4911 1.3992 22.6015 2.4968 22.6511 3.8848C22.6687 4.364 22.6455 4.8448 22.6663 5.324C22.6847 5.736 22.9927 6.0152 23.3615 5.9968C23.7167 5.9784 23.9791 5.7 23.9887 5.2992C24.0007 4.8456 23.9999 4.392 23.9887 3.9392C23.9591 2.66 23.4615 1.5832 22.4159 0.8544C21.8655 0.4704 21.1815 0.2784 20.5575 0H3.43911C3.18871 0.076 2.93351 0.1408 2.68711 0.2288C1.01671 0.8192 0.000711111 2.3072 0.000711111 4.1744C-0.000888889 14.7248 0.000711111 25.2752 0.000711111 35.8256C0.000711111 35.9584 -0.00168674 36.0928 0.00791326 36.2248C0.0903132 37.308 0.522313 38.22 1.32311 38.9616C1.92711 39.5208 2.66551 39.7928 3.43911 40H20.5575C20.6423 39.9712 20.7255 39.9336 20.8119 39.9144C22.6615 39.5016 24.0263 37.848 23.9895 36.0608C23.9807 35.6376 23.7255 35.3488 23.3495 35.3376ZM5.75591 1.3656H18.2447L18.2439 1.3664C18.2175 1.4184 18.1919 1.4696 18.1663 1.52C18.0039 1.84 17.8479 2.1536 17.6927 2.46C17.6487 2.5464 17.6055 2.632 17.5615 2.7168C17.5183 2.8016 17.4743 2.8864 17.4303 2.9704C17.3887 3.0496 17.3471 3.128 17.3055 3.2064C17.2135 3.3784 17.1199 3.548 17.0239 3.7168C17.0127 3.736 16.9991 3.7544 16.9823 3.772C16.9695 3.7848 16.9559 3.7976 16.9407 3.8104C16.9367 3.8136 16.9327 3.8168 16.9287 3.82C16.9247 3.8232 16.9207 3.8264 16.9167 3.8288C16.9087 3.8352 16.9007 3.8408 16.8919 3.8464C16.8687 3.8616 16.8439 3.8752 16.8175 3.8888C16.7991 3.8984 16.7799 3.9072 16.7599 3.9152C16.7455 3.9216 16.7303 3.9272 16.7159 3.932C16.6807 3.9448 16.6447 3.956 16.6095 3.964C16.5535 3.9776 16.4975 3.9848 16.4487 3.9848C14.2207 3.9976 11.9927 4.0008 9.76471 3.9944C9.02231 3.992 8.27911 3.988 7.53671 3.984C7.48151 3.9832 7.41911 3.9736 7.35591 3.9568C7.33991 3.952 7.32471 3.9472 7.30871 3.9424C7.28471 3.9344 7.26151 3.9256 7.23831 3.916C7.21511 3.9064 7.19271 3.896 7.17031 3.884C7.14471 3.8696 7.11991 3.8552 7.09751 3.84C7.06311 3.8176 7.03271 3.792 7.00711 3.764C6.99031 3.7456 6.97671 3.7272 6.96551 3.708C6.75351 3.3336 6.55431 2.9528 6.35671 2.5624C6.20791 2.2696 6.06071 1.972 5.90951 1.6696C5.85911 1.5696 5.80791 1.468 5.75671 1.3664H5.75591V1.3656Z" fill="#3F51B5"/>
<path d="M39.9941 11.5776C39.9933 9.0336 38.3045 7.3416 35.7597 7.3392C32.7333 7.3368 29.7077 7.3392 26.6821 7.3392C23.6565 7.3392 20.5765 7.336 17.5237 7.3392C15.0445 7.3424 13.3517 9.028 13.3397 11.5016C13.3333 12.7416 13.3301 13.9808 13.3445 15.2208C13.3477 15.4968 13.2621 15.6456 13.0125 15.7768C10.7149 16.9888 8.42528 18.2168 6.13168 19.4368C5.62928 19.704 5.33088 20.1024 5.33568 20.6776C5.34048 21.2352 5.63248 21.6296 6.11808 21.888C8.39968 23.1032 10.6781 24.3232 12.9661 25.5264C13.2373 25.6688 13.3509 25.8184 13.3461 26.1352C13.3269 27.4152 13.3229 28.6952 13.3429 29.9744C13.3781 32.2824 15.0821 33.9872 17.3861 33.9912C23.5709 34.0032 29.7565 33.9992 35.9413 33.9872C36.3741 33.9864 36.8269 33.9256 37.2365 33.7904C38.9557 33.224 39.9925 31.7272 39.9933 29.8552C39.9965 23.7624 39.9949 17.6696 39.9941 11.5768V11.5776ZM38.6541 29.84C38.6525 31.5592 37.5469 32.66 35.8197 32.6608C29.7141 32.664 23.6085 32.664 17.5029 32.6608C15.7805 32.66 14.6805 31.5608 14.6709 29.836C14.6629 28.4232 14.6565 27.0096 14.6757 25.5968C14.6821 25.1216 14.5021 24.8384 14.0829 24.6176C11.8181 23.4288 9.56368 22.2184 7.30688 21.0144C7.11968 20.9144 6.93568 20.808 6.67808 20.664C7.79168 20.068 8.83488 19.5088 9.87888 18.952C11.2781 18.2056 12.6717 17.4488 14.0805 16.7224C14.5205 16.4952 14.6829 16.1856 14.6757 15.7024C14.6557 14.316 14.6653 12.9288 14.6701 11.5424C14.6773 9.74719 15.7725 8.6608 17.5741 8.66C23.6397 8.66 29.7053 8.66 35.7709 8.6608C37.5469 8.6608 38.6533 9.756 38.6541 11.5208C38.6565 17.6272 38.6565 23.7336 38.6541 29.84Z" fill="#3F51B5"/>
<path d="M11.9991 36.004C13.6775 36.004 15.3551 36.004 17.0335 36.004C17.1799 36.004 17.3311 35.9928 17.4711 36.0248C17.7935 36.0992 17.9807 36.316 17.9879 36.648C17.9951 36.9768 17.8295 37.2096 17.5063 37.2968C17.3679 37.3336 17.2167 37.336 17.0711 37.336C13.6879 37.3384 10.3047 37.3376 6.9223 37.336C6.7895 37.336 6.6527 37.34 6.5255 37.3088C6.1847 37.2256 6.0015 36.9952 6.0103 36.6448C6.0199 36.292 6.2207 36.0784 6.5655 36.016C6.6951 35.9928 6.8311 36.0032 6.9639 36.0024C8.6423 36.0024 10.3199 36.0024 11.9983 36.0024L11.9991 36.004Z" fill="#3F51B5"/>
<path d="M35.6399 25.084C33.3783 21.1288 31.0959 17.1856 28.7839 13.2592C27.7583 11.5176 25.5063 11.5816 24.4831 13.3392C22.2391 17.1968 19.9967 21.056 17.7695 24.9232C17.5687 25.2728 17.4031 25.6808 17.3623 26.0768C17.2175 27.4928 18.3071 28.6456 19.7775 28.6552C22.0695 28.6696 24.3623 28.6592 26.6551 28.6592C28.9479 28.6592 31.2399 28.672 33.5319 28.6552C35.4759 28.6408 36.6007 26.764 35.6399 25.084ZM33.7863 27.3088C33.6175 27.3392 33.4415 27.3376 33.2687 27.3376C31.0695 27.3392 28.8703 27.3384 26.6711 27.3384C24.4719 27.3384 22.1655 27.3504 19.9127 27.3248C19.6055 27.3216 19.2495 27.2008 19.0039 27.0168C18.5855 26.7032 18.5535 26.2192 18.8399 25.7216C19.6303 24.348 20.4295 22.9784 21.2255 21.6072C22.6831 19.0952 24.1447 16.5848 25.5959 14.0688C25.8391 13.6472 26.1391 13.3456 26.6551 13.3432C27.1879 13.34 27.4919 13.6536 27.7431 14.088C29.9031 17.8256 32.0735 21.5568 34.2415 25.2904C34.3415 25.4632 34.4471 25.6336 34.5359 25.8128C34.8575 26.4632 34.5023 27.1776 33.7863 27.3088Z" fill="#3F51B5"/>
<path d="M25.9998 19.3608C25.9998 18.5088 25.9966 17.656 26.0006 16.804C26.003 16.2992 26.2334 16.0208 26.6438 16.0088C27.0638 15.996 27.3302 16.2928 27.3318 16.8056C27.3366 18.484 27.3358 20.1616 27.3318 21.84C27.3302 22.3592 27.0766 22.6584 26.6614 22.6576C26.2422 22.6568 26.0022 22.364 25.9998 21.8384C25.9966 21.0128 25.999 20.1872 25.999 19.3616L25.9998 19.3608Z" fill="#3F51B5"/>
<path d="M27.3335 25.0272C27.3335 25.08 27.3343 25.1336 27.3335 25.1864C27.3223 25.6872 27.0583 26.0032 26.6559 25.9984C26.2495 25.9936 26.0063 25.6872 25.9999 25.172C25.9983 25.0128 25.9943 24.8536 26.0023 24.6952C26.0231 24.2856 26.3031 23.9984 26.6703 24.0032C27.0215 24.008 27.2927 24.2792 27.3279 24.6704C27.3383 24.7888 27.3295 24.9088 27.3295 25.028H27.3327L27.3335 25.0272Z" fill="#3F51B5"/>
</g>
<defs>
<clipPath id="clip0_1283_11441">
<rect width="40" height="40" fill="white"/>
</clipPath>
</defs>
</svg>

<svg xmlns="http://www.w3.org/2000/svg" width="40" height="40" fill="none" xmlns:v="https://vecta.io/nano"><g clip-path="url(#A)" fill="#3f51b5"><path d="M23.35 35.338c-.359-.011-.631.243-.686.642-.007.052-.008.106-.011.159-.104 1.454-1.19 2.513-2.65 2.516a2665.87 2665.87 0 0 1-15.998-.01 2.86 2.86 0 0 1-1.26-.314c-.959-.498-1.406-1.341-1.406-2.422L1.34 4.07l.009-.28a2.66 2.66 0 0 1 2.596-2.454.43.43 0 0 1 .462.28l1.206 2.437c.403.846 1.054 1.274 1.993 1.274l8.798-.001c.902 0 1.551-.399 1.95-1.213l1.225-2.471c.118-.25.269-.315.527-.304 1.385.061 2.495 1.158 2.545 2.546l.015 1.439c.018.412.326.691.695.673.355-.018.618-.297.627-.698a26.58 26.58 0 0 0 0-1.36c-.03-1.279-.527-2.356-1.573-3.085C21.866.47 21.182.278 20.558 0H3.439l-.752.229C1.017.819.001 2.307.001 4.174v31.651l.007.399a4.01 4.01 0 0 0 1.315 2.737c.604.559 1.342.831 2.116 1.038h17.118l.254-.086c1.85-.413 3.214-2.066 3.178-3.854-.009-.423-.264-.712-.64-.723zM5.756 1.366h12.489-.001l-.078.154-.474.94-.131.257-.131.254-.125.236-.282.51c-.011.019-.025.038-.042.055s-.026.026-.042.038a.27.27 0 0 1-.024.018l-.025.018a.82.82 0 0 1-.074.042.63.63 0 0 1-.058.026l-.044.017c-.035.013-.071.024-.106.032a.7.7 0 0 1-.161.021l-6.684.01-2.228-.01c-.055-.001-.118-.01-.181-.027l-.047-.014a1.06 1.06 0 0 1-.07-.026.75.75 0 0 1-.068-.032 1.03 1.03 0 0 1-.073-.044.47.47 0 0 1-.09-.076c-.017-.018-.03-.037-.042-.056l-.609-1.146-.447-.893-.153-.303h-.001 0zm34.238 10.212c-.001-2.544-1.69-4.236-4.234-4.238-3.026-.002-6.052 0-9.078 0s-6.106-.003-9.158 0c-2.479.003-4.172 1.689-4.184 4.162l.005 3.719a.53.53 0 0 1-.332.556l-6.881 3.66c-.502.267-.801.666-.796 1.241.005.558.297.952.782 1.21l6.848 3.638c.271.142.385.292.38.609l-.003 3.839c.035 2.308 1.739 4.013 4.043 4.017l18.555-.004a4.22 4.22 0 0 0 1.295-.197c1.719-.566 2.756-2.063 2.757-3.935l.001-18.278v.001zm-1.34 18.262c-.002 1.719-1.107 2.82-2.834 2.821H17.503c-1.722-.001-2.822-1.1-2.832-2.825l.005-4.239a.97.97 0 0 0-.593-.979l-6.776-3.603-.629-.35 3.201-1.712 4.202-2.23c.44-.227.602-.537.595-1.02l-.006-4.16c.007-1.795 1.102-2.882 2.904-2.882l18.197.001c1.776 0 2.882 1.095 2.883 2.86V29.84zm-26.655 6.164h5.034c.146 0 .298-.011.438.021a.61.61 0 0 1 .517.623c.007.329-.158.562-.482.649-.138.037-.29.039-.435.039H6.922c-.133 0-.27.004-.397-.027-.341-.083-.524-.314-.515-.664a.61.61 0 0 1 .555-.629c.13-.023.266-.013.398-.014h5.034l.001.002zm23.641-10.92l-6.856-11.825c-1.026-1.742-3.278-1.678-4.301.08L17.77 24.923c-.201.35-.366.758-.407 1.154-.145 1.416.945 2.569 2.415 2.578l6.878.004 6.877-.004c1.944-.014 3.069-1.891 2.108-3.571zm-1.854 2.225c-.169.03-.345.029-.518.029H26.67c-2.199 0-4.506.012-6.758-.014-.307-.003-.663-.124-.909-.308-.418-.314-.45-.798-.164-1.295l2.386-4.114 4.37-7.538c.243-.422.543-.723 1.059-.726.533-.003.837.31 1.088.745L34.24 25.29l.294.522a1.02 1.02 0 0 1-.75 1.496zM26 19.361l.001-2.557c.002-.505.233-.783.643-.795.42-.013.686.284.688.797v5.034c-.002.519-.255.818-.67.818s-.659-.294-.662-.819l-.001-2.477.001-.001zm1.334 5.666v.159c-.011.501-.275.817-.678.812s-.65-.311-.656-.826l.002-.477c.021-.41.301-.697.668-.692.351.005.622.276.658.667.01.118.002.238.002.358h.003l.001-.001z"/></g><defs><clipPath id="A"><path fill="#fff" d="M0 0h40v40H0z"/></clipPath></defs></svg>
